T:Sadi Moma
C:Trad.
M:7/4
L:1/8
F:http://www.gnu.org/music/sadi-moma.abc
Z:Joakim Olsson
K:G
O:Bulgarian
V:1
d2 c B2 A2|B2 c B A G2|G3 A3 B|c3 B2 B d|A3 A4|d2 c B4|d2 c B2 A2|B2 c B A G2|
G3 A3 B|c3 B2 B d|A3 A4|A7|]
V:2
B2 A G2 D2|G2 G G2 D2|G3 G4|G3 G2 G2|D3 D4|G7|B2 A G2 D2|G2 G G2 D2|G3 G4|
G3 G2 G2|D3 D4|E7|]

